X:1
T:Panis Angelicus
T:Panis Angelicus 
T:Musique Claudio Casciolini (1697-1760) Paroles Saint Thomas d'aquin (1224/25-1274) 
T:Saisie Muse score
T:Saisie Muse score
C:Claudio Casciolini (1697-1760)
C:
Z:Saisie Muse score
%%score 1 2 3
L:1/8
Q:1/4=100
M:4/4
K:Ab
V:1 treble nm="Alto" snm="A."
V:2 treble-8 nm="Tenor" snm="T."
V:3 bass nm="Bass" snm="B."
V:1
 F4 =E2 F2 | G3 G G2 A2 | F4 E4 | D3 D E2 G2 | A4 E4 | F3 F G4 | z2 G2 G2 A2 |[M:3/4] F3 F F2 | %8
w: Pa- nis an-|ge- li- cus fit|pa- nis|ho- mi- num, fit|pa- nis|ho- mi- num;|dat pa- nis|cae- li- cus|
w: Te tri- na|De- i- tas U-|na- que|pos- ci- mus, U-|na- que|pos- ci- mus:|Sic nos tu|vi- si- ta,|
 F2 F2 G2 | =E3 E E2 | F2 F2 A2 |[M:4/4] A2 G2 A4!fine! | z2 A2 E2 A2 | G3 G G4 | z2 F2 C2 F2 | %15
w: fi- gu- ris|ter- mi- num,|fi- gu- ris|ter- mi- num:|O res mi-|ra- bi- lis!|O res mi|
w: Si- cut te|co- li- mus,|Si- cut- te|co- li- mus;|Per tu- as|se- mi- tas,|Per tu- as|
[M:3/4] =E3 E E2 | =E2 F2 G2 | A3 A G2 | G2 A2 A2 | F3 F E2 | A4 A2 | G4 G2 | B4 B2 | (A3 G) F2 | %24
w: ra- bi- lis!|man- du- cat|Do- mi- num,|man- du- cat|Do- mi- num,|pau- per,|ser- vus,|pau- per|ser- * vus|
w: se- mi- tas|Duc nos quo|ten- di- mus,|Duc nos quo|ten- di- mus,|Ad lu-|cem quam,|Ad lu-|cem- * quam|
 G2 F2 =E2 |[M:4/4] F2 A2 F3 F | =E4 F4 | (DE (F2 F2)) =E2 | !fermata!F4 z4!D.C.!!D.C.! |] %29
w: et hu- mi-|lis, et hu- mi-|lis, et|hu _ _ _ mi-|lis.|
w: in- ha- bi-|tas, in- ha- bi-|tas, in-|ha _ _ _ bi-|tas.|
V:2
 A4 G2 A2 | B3 B B2 c2 | A4 A4 | A2 G2 A2 B2 | c4 B4 | A3 A B4 | z2 B2 B2 c2 |[M:3/4] A3 A A2 | %8
w: Pa- nis an-|ge- li- cus fit|pa- nis|ho- mi- num, fit|pa- nis|ho- mi- num;|dat pa- nis|cae- li- cus|
w: Te tri- na|De- i- tas, U-|na- que|pos- ci- mus, U-|na- que|pos- ci- mus:|Sic nos tu|vi- si- ta,|
 A2 A2 B2 | G3 G G2 | A2 A2 c2 |[M:4/4] B3 B c4 | z2 c2 B2 c2 | B3 B B4 | z2 A2 G2 A2 | %15
w: fi- gu- ris|ter- mi- num|fi- gu- ris|ter- mi- num:|O res mi-|ra- bi- lis!|O res mi|
w: Si- cut te|co- li- mus,|Si- cut- te|co- li- mus;|Per tu- as|se- mi- tas,|Per tu- as|
[M:3/4] G3 G G2 | G2 A2 B2 | c3 c B2 | B2 c2 c2 | A3 A A2 | c4 c2 | B4 B2 | d4 d2 | (c3 B) A2 | %24
w: ra- bi- lis!|man- du- cat|Do- mi- num,|man- du- cat|Do- mi- num,|pau- per,|ser- vus,|pau- per|ser _ vus|
w: se- mi- tas|Duc nos quo|ten- di- mus,|Duc nos quo|ten- di- mus,|Ad lu-|cem quam,|Ad lu-|cem _ quam|
 B2 G3 G |[M:4/4] A2 c2 c2 B2 | c4 c4 | (B3 A G3) G | !fermata!=A4 z4 |] %29
w: et hu- mi-|lis, et hu- *|lis, et|hu _ _ mi-|lis.|
w: in- ha- bi-|tas, in- ha- *|tas, in-|ha _ _ bi-|tas.|
V:3
 F,4 C,2 F,2 | E,3 E, E,2 C,2 | D,4 C,4 | B,,3 B,, A,,2 E,2 | A,4 G,4 | F,3 F, E,4 | %6
w: Pa- nis an-|ge- li- cus fit|pa- nis|ho- mi- num, fit|pa- nis|ho- mi- num;|
w: Te tri- na|De- i- tas, U-|na- que|pos- ci- mus, U-|na- que|pos- ci- mus:|
 z2 F,2 F,2 C,2 |[M:3/4] D,3 D, D,2 | D,2 D,2 B,,2 | C,3 C, C,2 | F,2 D,2 A,,2 | %11
w: dat pa- nis|cae- li- cus|fi- gu- ris|ter- mi- num|fi- gu- ris|
w: Sic nos tu|vi- si- ta,|Si- cut te|co- li- mus,|Si- cut- te|
[M:4/4] E,3 E, A,,4 | z2 A,2 G,2 A,2 | E,3 E, E,4 | z2 F,2 =E,2 F,2 |[M:3/4] C,3 C, C,2 | %16
w: ter- mi- num:|O res mi-|ra- bi- lis!|O res mi|ra- bi- lis!|
w: co- li- mus;|Per tu- as|se- mi- tas,|Per tu- as|se- mi- tas|
 C,2 F,2 E,2 | A,3 A, E,2 | E,2 C,2 C,2 | D,3 D, C,2 | (A,,3 B,,) (C,D,) | E,4 E,2 | %22
w: man- du- cat|Do- mi- num,|man- du- cat|Do- mi- num,|pau _ per _|ser- vus,|
w: Duc nos quo|ten- di- mus,|Duc nos quo|ten- di- mus,|Ad _ lu _|cem quam|
 (B,,3 C,) (D,E,) | F,4 F,2 | B,,2 C,3 C, |[M:4/4] F,,2 F,2 D,3 D, | C,4 A,,4 | %27
w: pau _ per _|ser- vus|et hu- mi-|lis, et hu- mi-|lis, et|
w: Ad _ lu _|cem quam|in- ha- bi-|tas, in- ha- bi-|tas, in-|
"_Le pain des anges devient le pain des hommes. Le pain du ciel met un terme aux symboles.Ô chose admirable!\nIl mange son Seigneur le pauvre, le serviteur, le petit.\nDieu Trinité Et Un, nous te le demandons, daigne par ta visite  répondre à nos hommages. Par tes voies, \nconduis-nous    Au but où nous tendons, À la lumière où tu demeures. Ainsi soit-il." B,,4 C,3 C, | %28
w: hu _ mi-|
w: ha _ bi-|
 !fermata!F,,4 z4 |] %29
w: lis.|
w: tas.|

